X: 24804
T: Maggie Macpherson's
R: polka
M: 2/4
K: Eminor
|g>f ed|Be dB|G B/A/ GF|GE FG|
g>f ed|Be dc|B>A GB|A4|
g>f ed|Be dB|G B/A/ GF|GE FG|
E>G Bd|gf ed|B E/F/ GF|E3 e/f/|
ge be|ge be|ge b a/g/|fd d e/f/|
ge be|ge b>a|ge fg|a3 g/f/|
ge be|ge be|ge b a/g/|fa a2|
g b/g/ f a/f/|eg d e/f/|ge dc|B4|

